X: 2179
Q: "Strathspey."
M: C
L: 1/8
K: F
|:\
vC>vFuA>uF vc>vFuA>uF | C>FA>F (D<G)G2 |\
c>fa>f g>fa>f |
c>fa>f (e<g)g2 |\
[1 c>fa>f g>fa>f | g>fg>a f/f/f f2 :|\
[2 (f<a) (d<f) (c<f) (A<f) | c>BA>G F/F/F F2 |]


